!!!OTL@@DE: Mutterseelen allein
!!!COM: Braun, A.
!!!OMD: Moderato con espressione
!!!LYR: Tenner, Christian
!!!LDT: 1845
!!!OCL: Erk, Ludwig
!!!GCO: Deutscher Liederschatz, Band 1
**kern	**kern	**kern
*staff3	*staff2	*staff1
*Ipiano	*Ipiano	*Ivox
*>[A,B,B1,B,B2]	*>[A,B,B1,B,B2]	*>[A,B,B1,B,B2]
*>norep[A,B,B2]	*>norep[A,B,B2]	*>norep[A,B,B2]
*>A	*>A	*>A
*clefF4	*clefG2	*clefG2
*k[b-e-a-]	*k[b-e-a-]	*k[b-e-a-]
*E-:	*E-:	*E-:
*M6/8	*M6/8	*M6/8
*MM88	*MM88	*MM88
8r	8B-/	8r
=1	=1	=1
8E-\ 8G\ 8B-\L	8e-/L	2.r
8B-\	8e-/ 8g/	.
8G\J	8g/ 8b-/J	.
8E-/L	4g\ 4b-\ 4ee-\	.
8EE-/	.	.
8E-/J	8e-/ 8g/	.
=2	=2	=2
*	*^	*
4BB-\ 4B-\	(8b-/L	4d\ 4f\	4r
.	8a-/J	.	.
*	*v	*v	*
8BB-\ 8A-\	8B-/ 8d/ 8f/)	8r
4E-\ 4G\	4B-/ 4e-/	4r
=	=	=
8r	8r	8B-/
=3	=3	=3
4.E-\	(8G/L	4e-/
.	8B-/	.
.	8e-/J)	8g/
4.EE-/	(8G/L	4b-\
.	8B-/	.
.	8e-/J)	8ee-\
=4	=4	=4
4.AA-/	(8A-/L	4dd^\
.	8c/	.
.	8f/J)	8cc\
4.AA-/	(8A-/L	4a-/
.	8c/	.
.	8f/J)	8g/
=5	=5	=5
4.BB-/	(8A-/L	4f/
.	8B-/	.
.	8d/J)	8f/
4.BB-/	(8A-/L	8b-\L
.	8B-/	8cc\J
.	8d/J)	8a-/
=6	=6	=6
4.E-\	(8G/L	[4.g/
.	8B-/	.
.	8e-/J)	.
4.EE-/	(8G/L	4g/]
.	8B-/	.
.	8e-/J)	8g/
=7	=7	=7
4.FF/	(8An/L	4f/
.	8c/	.
.	8e-/J)	8f/
4.F\	(8A/L	8an/L
.	8e-/	8g/J
.	8f/J)	8f/
=8	=8	=8
4F\	(8B-/L	8d/L
.	8d/	8f/J
8D\	8f/J)	8b-\
4BB-\ 4B-\	(8b-/L	4dd\
.	8f/)	.
8D\ 8B-\	8f/J	8b-\
=9	=9	=9
4F\ 4An\	4f/	4f/
8F\ 8B-\	8en/ 8g/	8g/
*^	*	*
8c/L	8F\L	8e-/ 8f/ 8an/L	8an/
8f/	8F\	8a/ 8dd/	8dd\
8e-/J	8F\J	8a/ 8cc/J	8cc\
*v	*v	*	*
=10	=10	=10
[4.B-\ [4.d\	[4.f/ [4.b-/	[4.b-\
8B-\] 8d\]	8f/] 8b-/]	8b-\]
8r	8r	8r
8BB-\ 8B-\	8b-\	8b-\
=11	=11	=11
8AA-\ 8A-\L	8a-/L	8a-/
8r	8r	8r
8AA-\ 8A-\J	8a-/J	8a-/
8GG-/ 8G-/L	8g-/L	8g-/
8r	8r	8r
8GG-/ 8G-/J	8g-/J	8g-/
=12	=12	=12
8FF/ 8F/L	8f/L	4f/
8r	8r	.
8FF/ 8F/J	8f/J	8f/
8EE-/ 8E-/L	8e-/L	4e-/
8r	8r	.
8EE-/ 8E-/J	8e-/J	8e-/
=13	=13	=13
4C-/	4An/ 4e-/ 4g-/	(8.g-/L
.	.	16f/Jk)
8C-/	8A/ 8e-/ 8g-/	8e-/
4C-;/	4A;/ 4e-;/ 4f;/	4ee-;\
8C-/	8A/ 8e-/ 8f/	8an/
=14	=14	=14
[4.BB-\ [4.F\	[4.B-/ 4.d/ ([4.f/	[4.b-\
4BB-\] 4F\]	4B-/] 4d/ 4f/])	8b-\]
.	.	8r
8r	8r	8b-\
=15	=15	=15
8AA-\ 8A-\L	8c-/ 8e-/ 8a-/L	8cc-\L
8r	8r	8dd-\J
8D-\J	8c-/ 8f/ 8a-/J	8cc-\
8GG-/ 8G-/L	8B-/ 8d/ 8g-/L	8b-\L
8r	8r	8cc-\J
8GG-/ 8G-/J	8B-/ 8d/ 8g-/J	8b-\
=16	=16	=16
8FF/ 8F/L	8B-/ 8dn/ 8a-/L	8a-/L
8r	8r	8b-/J
8BB-/J	8B-/ 8d/ 8a-/J	8a-/
8EE-/ 8E-/	8B-/ 8e-/ 8g-/	4g-/
8r	8r	.
8G-\	(8g-/	8g-/
=17	=17	=17
4F\	4f/	4f/
8F\	8f/	8f/
8E-\L	8e-/L	8e-/
8D\	8d/	8d/
&(8E-\J&)	8e-/J)	8e-/
=18	=18	=18
[4.BB-\ [4.F\	[4.d/ [4.b-/	[4.B-/ [4.b-/
4BB-\] 4F\]	4d/] 4b-/]	8B-/] 8b-/]
.	.	8r
8r	8r	8b-\
=19!|:	=19!|:	=19!|:
*>B	*>B	*>B
8EE-/L	16r	8b-\L
.	(16G/LL	.
8E-/J	16B-/	8cc\J
.	16e-/	.
8r	16B-/	8b-\
.	16G/JJ)	.
8EE-/L	16r	4ee-^\
.	(16G/LL	.
8E-/J	16B-/	.
.	16e-/	.
8r	16B-/	8g/
.	16G/JJ)	.
=20	=20	=20
8AAA-/L	16r	8f/L
.	(16A-/LL	.
8AA-/J	16c/	8g/J
.	16f/	.
8r	16c/	8f/
.	16A-/JJ)	.
8AAA-/L	16r	4cc^\
.	(16A-/LL	.
8AA-/J	16c/	.
.	16f/	.
8r	16c/	8cc\
.	16A-/JJ)	.
=21	=21	=21
8BBB-/L	16r	4b-\
.	(16A-/LL	.
8BB-/J	16d/	.
.	16f/	.
8r	16d/	8b-\
.	16A-/JJ)	.
8BBB-/L	16r	8dd\L
.	(16A-/LL	.
8BB-/J	16d/	8cc\J
.	16f/	.
8r	16d/	8b-\
.	16A-/JJ)	.
=22	=22	=22
8EE-/L	16r	(4.b-^\
.	(16G/LL	.
8E-/J	16B-/	.
.	16e-/	.
8r	16B-/	.
.	16G/JJ)	.
8EE-/L	16r	4g/)
.	(16G/LL	.
8E-/J	16B-/	.
.	16e-/	.
8r	16B-/	8b-\
.	16G/JJ)	.
=23	=23	=23
8EE-/L	16r	8b-\L
.	(16G/LL	.
8E-/J	16B-/	8cc\J
.	16e-/	.
8r	16B-/	8b-\
.	16G/JJ)	.
8GG/L	16r	4ee-\
.	(16G/LL	.
8G/J	16Bn/	.
.	16e-/	.
8r	16B/	8dd\
.	16G/JJ)	.
=24	=24	=24
8AA-\L	16r	8cc\L
.	(16A-/LL	.
8A-\J	16c/	8bn\J
.	16f/	.
8r	16a-/	8cc\
.	16cc/JJ)	.
4En;\ 4d-;\	4b-;\ 4gg;\	4gg;\
8F\ 8c\	8a-\ 8ff\	8ff\
=25	=25	=25
4.BB-\ 4.B-\	8g/ 8b-/ 8ee-/L	8ee-^\L
.	8f/ 8b-/ 8dd/	8dd^\J
.	8e-/ 8a-/ 8cc/J	8cc\
4.BBB-/ 4.BB-/	8d/ 8a-/ 8b-/L	8b-\
.	8e-/ 8a-/ 8cc/	8cc\
.	8d/ 8a-/ 8b-/J	8b-\
=26	=26	=26
*>B1	*>B1	*>B1
8EE-/L	16e-/ 16g/ 16b-/LL	[4.g/
.	(16G/	.
8E-/J	16B-/	.
.	16e-/	.
8r	16B-/	.
.	16G/JJ)	.
8EE-/L	16r	4g/]
.	(16G/LL	.
8E-/J	16B-/	.
.	16e-/	.
8r	16B-/	8b-\
.	16G/JJ)	.
=27:|!	=27:|!	=27:|!
*>B2	*>B2	*>B2
4EE-/ 4E-/	16e-\ 16g\ 16b-\LL	[4.e-/ [4.ee-/
.	(16g\	.
.	16b-\	.
.	16ee-\	.
8r	16gg\	.
.	16bb-\JJ)	.
8E-;\ 8G;\ 8B-;\ 8e-;\	8ee-;\ 8gg;\ 8bb-;\ 8eee-;\	8e-/] 8ee-/]
8r	8r	8r
==	==	==
*-	*-	*-
!!!ENC: Craig Stuart Sapp
!!!END: 2004/06/02/
!!!EFL: 036/651
